packages/components/bolt-icons/src/svgs/utility/unlock.svg

<?xml version="1.0" encoding="UTF-8" standalone="no"?>
<svg width="24px" height="24px" viewBox="0 0 24 24" version="1.1" xmlns="http://www.w3.org/2000/svg" xmlns:xlink="http://www.w3.org/1999/xlink">
    <!-- Generator: Sketch 46.2 (44496) - http://www.bohemiancoding.com/sketch -->
    <title>Icon/utility/Indigo/24px/Unlock</title>
    <desc>Created with Sketch.</desc>
    <defs></defs>
    <g id="Symbols" stroke="none" stroke-width="1" fill="none" fill-rule="evenodd">
        <g id="Icon/utility/Indigo/24px/Unlock">
            <path d="M20.001,20.0059 C20.001,20.5559 19.551,21.0059 19.001,21.0059 L5.001,21.0059 C4.451,21.0059 4.001,20.5559 4.001,20.0059 L4.001,13.0059 C4.001,12.4559 4.451,12.0059 5.001,12.0059 L19.001,12.0059 C19.551,12.0059 20.001,12.4559 20.001,13.0059 L20.001,20.0059 Z M19.001,10.0059 L8.001,10.0059 L8.001,6.9999 C8.001,4.7939 9.795,2.9999 12.001,2.9999 C13.882,2.9999 15.532,4.3379 15.913,6.1749 C16.025,6.7189 16.557,7.0629 17.094,6.9499 C17.631,6.8369 17.982,6.3059 17.869,5.7689 C17.294,3.0059 14.819,0.9999 11.994,0.9999 C8.688,0.9999 5.994,3.6939 5.994,7.0059 L5.994,10.0059 L5,10.0059 C3.344,10.0059 2,11.3499 2,13.0059 L2,20.0059 C2,21.6619 3.344,23.0059 5,23.0059 L19,23.0059 C20.656,23.0059 22,21.6619 22,20.0059 L22,13.0059 C22,11.3499 20.656,10.0059 19,10.0059 L19.001,10.0059 Z" id="Unlock" fill="#1F2555"></path>
        </g>
    </g>
</svg>

<?xml version="1.0" encoding="utf-8"?>
<!-- Generator: Adobe Illustrator 24.0.3, SVG Export Plug-In . SVG Version: 6.00 Build 0)  -->
<svg version="1.1" id="Layer_1" xmlns="http://www.w3.org/2000/svg" xmlns:xlink="http://www.w3.org/1999/xlink" x="0px" y="0px"
	 viewBox="0 0 24 24" enable-background="new 0 0 24 24" xml:space="preserve">
<path id="Unlock" fill-rule="evenodd" clip-rule="evenodd" d="M20,20c0,0.6-0.4,1-1,1H5c-0.5,0-1-0.4-1-1v-7c0-0.6,0.5-1,1-1h14
	c0.6,0,1,0.4,1,1V20z M19,10H8V7c0-2.2,1.8-4,4-4c1.9,0,3.5,1.3,3.9,3.2C16,6.7,16.5,7.1,17.1,7s0.9-0.6,0.8-1.2C17.3,3,14.8,1,12,1
	C8.7,1,6,3.7,6,7v3H5c-1.7,0-3,1.3-3,3v7c0,1.7,1.3,3,3,3h14c1.7,0,3-1.3,3-3v-7C22,11.3,20.7,10,19,10L19,10z"/>
</svg>
